design/General/api_settings.svg

<svg width="24" height="24" viewBox="0 0 24 24" fill="none" xmlns="http://www.w3.org/2000/svg">
<path fill-rule="evenodd" clip-rule="evenodd" d="M2 8C2 6.89543 2.89543 6 4 6H20C21.1046 6 22 6.89543 22 8V13.7578C21.285 13.2791 20.4251 13 19.5 13C19.0506 13 18.6165 13.0659 18.207 13.1885V9.28906H16.6562V14.0123C15.6454 14.8374 15 16.0934 15 17.5C15 17.669 15.0093 17.8358 15.0275 18H4C2.89543 18 2 17.1046 2 16V8ZM9.29297 15L9.01172 13.9297H7.15625L6.86719 15H5.17188L7.03516 9.26562H9.09375L10.9805 15H9.29297ZM8.69141 12.6641L8.44531 11.7266C8.41927 11.625 8.38151 11.4805 8.33203 11.293C8.28255 11.1029 8.23307 10.9076 8.18359 10.707C8.13672 10.5039 8.10026 10.3372 8.07422 10.207C8.05078 10.3372 8.01693 10.4987 7.97266 10.6914C7.93099 10.8815 7.88672 11.0703 7.83984 11.2578C7.79557 11.4453 7.75651 11.6016 7.72266 11.7266L7.47656 12.6641H8.69141ZM13.5781 9.28906C14.3021 9.28906 14.8438 9.44661 15.2031 9.76172C15.5651 10.0768 15.7461 10.5247 15.7461 11.1055C15.7461 11.3659 15.7083 11.6159 15.6328 11.8555C15.5599 12.0951 15.4388 12.3086 15.2695 12.4961C15.1029 12.6836 14.8802 12.832 14.6016 12.9414C14.3255 13.0508 13.9844 13.1055 13.5781 13.1055H13.1445V15H11.6016V9.28906H13.5781ZM13.543 10.5352H13.1445V11.8477H13.4492C13.582 11.8477 13.7057 11.8255 13.8203 11.7812C13.9349 11.7344 14.026 11.6602 14.0938 11.5586C14.1641 11.4544 14.1992 11.3164 14.1992 11.1445C14.1992 10.9648 14.1458 10.819 14.0391 10.707C13.9323 10.5924 13.7669 10.5352 13.543 10.5352Z" fill="#727E84"/>
<path d="M21.304 18.978C20.6275 19.6546 19.6472 19.8341 18.805 19.5372L16.4508 21.8914C16.3128 22.0294 16.0988 22.0294 15.9607 21.8914L14.9942 20.9249C14.8561 20.7868 14.8561 20.5728 14.9942 20.4347L17.3483 18.0806C17.0514 17.2383 17.2309 16.258 17.9075 15.5815C18.6738 14.8152 19.8267 14.684 20.738 15.1742L19.1156 16.7965L20.089 17.7699L21.7114 16.1476C22.2015 17.0519 22.0703 18.2117 21.304 18.978Z" fill="#727E84"/>
</svg>

<svg xmlns="http://www.w3.org/2000/svg" width="24" height="24" viewBox="0 0 24 24"><path d="M21.3,19a2.42,2.42,0,0,1-2.5.56l-2.35,2.35a.34.34,0,0,1-.49,0l-1-1a.36.36,0,0,1,0-.49l2.36-2.35a2.39,2.39,0,0,1,3.39-2.91L19.12,16.8l1,1,1.62-1.62A2.39,2.39,0,0,1,21.3,19ZM22,8v5.76A4.47,4.47,0,0,0,19.5,13a4.57,4.57,0,0,0-1.29.19V9.29H16.66V14A4.5,4.5,0,0,0,15,17.5a4.07,4.07,0,0,0,0,.5H4a2,2,0,0,1-2-2V8A2,2,0,0,1,4,6H20A2,2,0,0,1,22,8ZM11,15,9.09,9.27H7L5.17,15h1.7l.29-1.07H9L9.29,15Zm4.77-3.89a1.67,1.67,0,0,0-.55-1.35,2.43,2.43,0,0,0-1.62-.47h-2V15h1.54V13.11h.44a2.75,2.75,0,0,0,1-.17,1.82,1.82,0,0,0,.67-.44,1.63,1.63,0,0,0,.36-.64A2.36,2.36,0,0,0,15.75,11.11Zm-7.3.62-.12-.44-.15-.58c0-.21-.08-.37-.11-.5a4.63,4.63,0,0,1-.1.48c0,.19-.08.38-.13.57s-.08.34-.12.47l-.24.93H8.69Zm5.59-1a.63.63,0,0,0-.5-.17h-.4v1.31h.31a.9.9,0,0,0,.37-.07.59.59,0,0,0,.27-.22.75.75,0,0,0,.11-.42A.57.57,0,0,0,14,10.71Z"/><rect width="24" height="24" fill="none"/></svg>
